svgs/duotone/face-smile-relaxed.svg

<svg xmlns="http://www.w3.org/2000/svg" viewBox="0 0 512 512"><!--! Font Awesome Pro 6.5.1 by @fontawesome - https://fontawesome.com License - https://fontawesome.com/license (Commercial License) Copyright 2023 Fonticons, Inc. --><defs><style>.fa-secondary{opacity:.4}</style></defs><path class="fa-secondary" d="M256 512A256 256 0 1 0 256 0a256 256 0 1 0 0 512zM164.1 325.5C182 346.2 212.6 368 256 368s74-21.8 91.9-42.5c5.8-6.7 15.9-7.4 22.6-1.6s7.4 15.9 1.6 22.6C349.8 372.1 311.1 400 256 400s-93.8-27.9-116.1-53.5c-5.8-6.7-5.1-16.8 1.6-22.6s16.8-5.1 22.6 1.6zm47.1-91.9c-17.6-23.5-52.8-23.5-70.4 0c-5.3 7.1-15.3 8.5-22.4 3.2s-8.5-15.3-3.2-22.4c30.4-40.5 91.2-40.5 121.6 0c5.3 7.1 3.9 17.1-3.2 22.4s-17.1 3.9-22.4-3.2zm89.6 0c-5.3 7.1-15.3 8.5-22.4 3.2s-8.5-15.3-3.2-22.4c30.4-40.5 91.2-40.5 121.6 0c5.3 7.1 3.9 17.1-3.2 22.4s-17.1 3.9-22.4-3.2c-17.6-23.5-52.8-23.5-70.4 0z"/><path class="fa-primary" d="M140.8 233.6c17.6-23.5 52.8-23.5 70.4 0c5.3 7.1 15.3 8.5 22.4 3.2s8.5-15.3 3.2-22.4c-30.4-40.5-91.2-40.5-121.6 0c-5.3 7.1-3.9 17.1 3.2 22.4s17.1 3.9 22.4-3.2zm160 0c17.6-23.5 52.8-23.5 70.4 0c5.3 7.1 15.3 8.5 22.4 3.2s8.5-15.3 3.2-22.4c-30.4-40.5-91.2-40.5-121.6 0c-5.3 7.1-3.9 17.1 3.2 22.4s17.1 3.9 22.4-3.2z"/></svg>

<svg xmlns="http://www.w3.org/2000/svg" viewBox="0 0 512 512"><!--! Font Awesome Pro 6.1.1 by @fontawesome - https://fontawesome.com License - https://fontawesome.com/license (Commercial License) Copyright 2022 Fonticons, Inc. --><defs><style>.fa-secondary{opacity:.4}</style></defs><path class="fa-primary" d="M118.4 236.8C111.3 231.5 109.9 221.5 115.2 214.4C145.6 173.9 206.4 173.9 236.8 214.4C242.1 221.5 240.7 231.5 233.6 236.8C226.5 242.1 216.5 240.7 211.2 233.6C193.6 210.1 158.4 210.1 140.8 233.6C135.5 240.7 125.5 242.1 118.4 236.8V236.8zM278.4 236.8C271.3 231.5 269.9 221.5 275.2 214.4C305.6 173.9 366.4 173.9 396.8 214.4C402.1 221.5 400.7 231.5 393.6 236.8C386.5 242.1 376.5 240.7 371.2 233.6C353.6 210.1 318.4 210.1 300.8 233.6C295.5 240.7 285.5 242.1 278.4 236.8z"/><path class="fa-secondary" d="M0 256C0 114.6 114.6 0 256 0C397.4 0 512 114.6 512 256C512 397.4 397.4 512 256 512C114.6 512 0 397.4 0 256zM164.1 325.5C158.3 318.8 148.2 318.1 141.5 323.9C134.8 329.7 134.1 339.8 139.9 346.5C162.1 372.1 200.9 400 255.1 400C311.1 400 349.8 372.1 372.1 346.5C377.9 339.8 377.2 329.7 370.5 323.9C363.8 318.1 353.7 318.8 347.9 325.5C329.9 346.2 299.4 368 255.1 368C212.6 368 182 346.2 164.1 325.5H164.1zM233.6 236.8C240.7 231.5 242.1 221.5 236.8 214.4C206.4 173.9 145.6 173.9 115.2 214.4C109.9 221.5 111.3 231.5 118.4 236.8C125.5 242.1 135.5 240.7 140.8 233.6C158.4 210.1 193.6 210.1 211.2 233.6C216.5 240.7 226.5 242.1 233.6 236.8zM300.8 233.6C318.4 210.1 353.6 210.1 371.2 233.6C376.5 240.7 386.5 242.1 393.6 236.8C400.7 231.5 402.1 221.5 396.8 214.4C366.4 173.9 305.6 173.9 275.2 214.4C269.9 221.5 271.3 231.5 278.4 236.8C285.5 242.1 295.5 240.7 300.8 233.6z"/></svg>
